icons/1_Primary/TrueNAS.svg

<svg width="1024" height="1024" fill="none" xmlns="http://www.w3.org/2000/svg"><g clip-path="url(#a)"><path d="M512 1024c282.77 0 512-229.23 512-512S794.77 0 512 0 0 229.23 0 512s229.23 512 512 512Z" fill="#9ABEFF"/><path d="M780 468.41v114.21L535.48 723.86v-114.2L780 468.41ZM488.69 609.66v114.21L244 582.62V468.41l110.57 63.79c.122.097.257.177.4.24l133.72 77.22ZM611 512l-98.91 57.15-99-57.15 99-57.15L611 512Zm145.7-84.09-99 57.15-122.22-70.64V300.13L756.7 427.91Zm-268-127.81v114.32L366.3 485l-99-57.06L488.7 300.1Z" fill="#fff"/></g><defs><clipPath id="a"><path fill="#fff" d="M0 0h1024v1024H0z"/></clipPath></defs></svg>

<svg width="1024" height="1024" viewBox="0 0 1024 1024" fill="none" xmlns="http://www.w3.org/2000/svg">
<g clip-path="url(#clip0_2_3738)">
<path d="M512 1024C794.77 1024 1024 794.77 1024 512C1024 229.23 794.77 0 512 0C229.23 0 0 229.23 0 512C0 794.77 229.23 1024 512 1024Z" fill="#9ABEFF"/>
<path d="M780 468.41V582.62L535.48 723.86V609.66L780 468.41ZM488.69 609.66V723.87L244 582.62V468.41L354.57 532.2C354.692 532.297 354.827 532.377 354.97 532.44L488.69 609.66ZM611 512L512.09 569.15L413.09 512L512.09 454.85L611 512ZM756.7 427.91L657.7 485.06L535.48 414.42V300.13L756.7 427.91ZM488.7 300.1V414.42L366.3 485L267.3 427.94L488.7 300.1Z" fill="white"/>
</g>
<defs>
<clipPath id="clip0_2_3738">
<rect width="1024" height="1024" fill="white"/>
</clipPath>
</defs>
</svg>
